spacelab_test3/img/antrax/twitter.svg

<svg width="25" height="24" viewBox="0 0 25 24" fill="none" xmlns="http://www.w3.org/2000/svg">
<rect x="0.7742" width="24" height="24" rx="12" fill="#38A7DE"/>
<path fill-rule="evenodd" clip-rule="evenodd" d="M7.74194 15.2918C8.6558 15.9023 9.74076 16.2578 10.9072 16.2578C14.7056 16.2578 16.7824 12.9812 16.7824 10.1401C16.7824 10.0469 16.7804 9.95483 16.7764 9.86275C17.1799 9.55936 17.5302 9.18093 17.8065 8.7498C17.4366 8.92118 17.0385 9.03615 16.6209 9.08725C17.0471 8.82272 17.3737 8.4001 17.5287 7.89872C17.1296 8.14462 16.6873 8.32346 16.2173 8.4198C15.8409 8.00251 15.3039 7.7417 14.7101 7.7417C13.5698 7.7417 12.6449 8.70349 12.6449 9.89042C12.6449 10.0597 12.6635 10.2231 12.6987 10.3806C10.9827 10.2912 9.46046 9.43534 8.44294 8.13451C8.2653 8.4528 8.16314 8.82112 8.16314 9.21552C8.16314 9.96122 8.52748 10.6196 9.08153 11.005C8.74286 10.9949 8.42482 10.8975 8.14603 10.7362C8.14603 10.7452 8.14603 10.7543 8.14603 10.7633C8.14603 11.8044 8.8586 12.6741 9.80215 12.8716C9.62954 12.9211 9.44687 12.9467 9.25867 12.9467C9.12531 12.9467 8.99598 12.9339 8.87018 12.9083C9.13236 13.7631 9.89525 14.3848 10.7985 14.4013C10.092 14.9783 9.20281 15.3211 8.2346 15.3211C8.06803 15.3211 7.90398 15.3125 7.74194 15.2918Z" fill="white"/>
</svg>

<svg width="25" height="24" fill="none" xmlns="http://www.w3.org/2000/svg"><rect x=".774" width="24" height="24" rx="12" fill="#38A7DE"/><path fill-rule="evenodd" clip-rule="evenodd" d="M7.742 15.292c.914.61 1.999.966 3.165.966 3.799 0 5.875-3.277 5.875-6.118 0-.093-.002-.185-.006-.277a4.29 4.29 0 001.03-1.113c-.37.171-.768.286-1.185.337.426-.264.753-.687.908-1.188a4.05 4.05 0 01-1.312.52 2.026 2.026 0 00-1.507-.677c-1.14 0-2.065.961-2.065 2.148 0 .17.019.333.054.49-1.716-.089-3.239-.945-4.256-2.245a2.21 2.21 0 00-.28 1.08c0 .746.364 1.405.919 1.79a1.981 1.981 0 01-.936-.269v.027c0 1.041.713 1.911 1.656 2.109a1.97 1.97 0 01-.932.036c.262.855 1.025 1.477 1.929 1.493a4.034 4.034 0 01-3.057.89z" fill="#fff"/></svg>
